_includes/icons/ios-right-navigation-toolbar.svg

<svg fill="#666" height="50" viewBox="0 0 50 50" width="50" xmlns="http://www.w3.org/2000/svg"><path d="m3 5c-1.644531 0-3 1.355469-3 3v34c0 1.644531 1.355469 3 3 3h44c1.644531 0 3-1.355469 3-3v-34c0-1.644531-1.355469-3-3-3zm0 2h26v36h-26c-.5625 0-1-.4375-1-1v-34c0-.5625.4375-1 1-1zm28 0h16c.5625 0 1 .4375 1 1v34c0 .5625-.4375 1-1 1h-16zm5 2c-1.644531 0-3 1.355469-3 3s1.355469 3 3 3 3-1.355469 3-3-1.355469-3-3-3zm7 0c-1.644531 0-3 1.355469-3 3s1.355469 3 3 3 3-1.355469 3-3-1.355469-3-3-3zm-7 2c.5625 0 1 .4375 1 1s-.4375 1-1 1-1-.4375-1-1 .4375-1 1-1zm7 0c.5625 0 1 .4375 1 1s-.4375 1-1 1-1-.4375-1-1 .4375-1 1-1zm-9.1875 6c-.476562.089844-.820312.511719-.8125 1v4c0 .550781.449219 1 1 1h11c.550781 0 1-.449219 1-1v-4c0-.550781-.449219-1-1-1h-11c-.03125 0-.0625 0-.09375 0s-.0625 0-.09375 0zm1.1875 2h9v2h-9z"/></svg>

<svg xmlns="http://www.w3.org/2000/svg" viewBox="0 0 50 50" width="50" height="50" fill="#666"><path d="M 3 5 C 1.355469 5 0 6.355469 0 8 L 0 42 C 0 43.644531 1.355469 45 3 45 L 47 45 C 48.644531 45 50 43.644531 50 42 L 50 8 C 50 6.355469 48.644531 5 47 5 Z M 3 7 L 29 7 L 29 43 L 3 43 C 2.4375 43 2 42.5625 2 42 L 2 8 C 2 7.4375 2.4375 7 3 7 Z M 31 7 L 47 7 C 47.5625 7 48 7.4375 48 8 L 48 42 C 48 42.5625 47.5625 43 47 43 L 31 43 Z M 36 9 C 34.355469 9 33 10.355469 33 12 C 33 13.644531 34.355469 15 36 15 C 37.644531 15 39 13.644531 39 12 C 39 10.355469 37.644531 9 36 9 Z M 43 9 C 41.355469 9 40 10.355469 40 12 C 40 13.644531 41.355469 15 43 15 C 44.644531 15 46 13.644531 46 12 C 46 10.355469 44.644531 9 43 9 Z M 36 11 C 36.5625 11 37 11.4375 37 12 C 37 12.5625 36.5625 13 36 13 C 35.4375 13 35 12.5625 35 12 C 35 11.4375 35.4375 11 36 11 Z M 43 11 C 43.5625 11 44 11.4375 44 12 C 44 12.5625 43.5625 13 43 13 C 42.4375 13 42 12.5625 42 12 C 42 11.4375 42.4375 11 43 11 Z M 33.8125 17 C 33.335938 17.089844 32.992188 17.511719 33 18 L 33 22 C 33 22.550781 33.449219 23 34 23 L 45 23 C 45.550781 23 46 22.550781 46 22 L 46 18 C 46 17.449219 45.550781 17 45 17 L 34 17 C 33.96875 17 33.9375 17 33.90625 17 C 33.875 17 33.84375 17 33.8125 17 Z M 35 19 L 44 19 L 44 21 L 35 21 Z"/></svg>
